assets/rollbar/mono.svg

<svg viewBox="0 0 24 24" xmlns="http://www.w3.org/2000/svg"><path d="m24 2.5795c-.0019-.1956-.1152-.5064-.484-.584-.0578-.0162-.1178-.0113-.177-.0104-.3082.0276-4.3793.4162-8.9551 2.4569-2.7478 1.2221-4.8747 3.0984-6.213 5.376l-.3449.1494c-4.8989 2.1868-7.826 6.4372-7.826 11.3706v.0828c0 .3392.2786.5955.5967.5955h16.2625c.1045 0 .2506-.0351.3748-.1391l6.5533-5.5255a.5932.5932 0 0 0 .2116-.4598v-13.3124zm-6.5544 17.5582v-11.7557l5.3622-4.5195v11.7557zm-10.0772-3.6469h8.885v4.3333h-14.0264zm7.4996-10.9588a30.7234 30.7234 0 0 1 6.5315-2.043l-4.7932 4.041a30.4061 30.4061 0 0 0 -6.489 1.528c1.1866-1.4487 2.787-2.6501 4.7506-3.5262zm-5.89 5.2402a30.7706 30.7706 0 0 1 7.2753-1.9947v6.5211h-8.494a10.5382 10.5382 0 0 1 1.2187-4.5264zm-1.636.7611a11.8074 11.8074 0 0 0 -.7887 4.0826l-5.2886 4.4632c.4-3.6262 2.5535-6.6591 6.0773-8.5458z"/></svg>

<svg xmlns="http://www.w3.org/2000/svg" viewBox="0 0 24 24"><path d="M24 2.58a.595.595 0 0 0-.484-.585c-.058-.016-.118-.01-.177-.01-.308.028-4.38.416-8.955 2.457C11.636 5.664 9.509 7.54 8.17 9.818l-.345.15C2.927 12.153 0 16.404 0 21.337v.083c0 .339.279.595.597.595h16.262c.105 0 .25-.035.375-.139l6.553-5.525a.6.6 0 0 0 .212-.46V2.58zm-6.554 17.558V8.382l5.362-4.52v11.756zM7.368 16.49h8.885v4.333H2.227zm7.5-10.959a30.7 30.7 0 0 1 6.531-2.043L16.607 7.53a30.4 30.4 0 0 0-6.489 1.528c1.187-1.449 2.787-2.65 4.75-3.526zm-5.89 5.24a30.8 30.8 0 0 1 7.275-1.995V15.3H7.76a10.5 10.5 0 0 1 1.219-4.527m-1.636.761a11.8 11.8 0 0 0-.789 4.083l-5.288 4.463c.4-3.626 2.553-6.659 6.077-8.546"/></svg>
